!!!SOCIAL_FUNCTION:	cheyenne war song
!!!PDT:	1936
!!!OTL: No_15_War_Dance_Song.krn
!!!REG: Oklahoma and Montana
!!!LANG: Tone
!!!LING_GROUP: Algonquin
**kern	**kern
*staff2	*staff1
=1-	=1-
=	=
*clefF4	*clefG2
*k[]	*k[]
*M2/4	*M2/4
8GG/L	8g/L
8GG/J	8e/J
8GG/L	8e/L
8GG/J	8g/J
=2	=2
8GG/L	16a/LK
.	8.g/J
8GG/J	.
8GG/L	4e/
8GG/J	.
=3	=3
2r	8d/L
.	8d/J
.	8d/L
.	8d/J
=4	=4
2r	8g/L
.	8e/J
.	8e/L
.	8e/J
=5	=5
2r	8.e/L
.	16d/Jk
.	16e/LL
.	16d/J
.	8c/J
=6	=6
2r	8c/L
.	8c/J
.	8G/L
.	8G/J
=7	=7
2r	8d/L
.	8c/J
.	8c/L
.	16c/L
.	16d/JJ
=8	=8
2r	16e/LK
.	8d/
.	16d/Jk
.	8d/L
.	8e/J
=9	=9
*M3/4	*M3/4
2.r	8d/L
.	8d/J
.	8d/L
.	8G/J
.	8d/L
.	8d/J
=10	=10
*M2/4	*M2/4
2r	8G/L
.	8G/J
.	(12G/L
.	24E/Jk)
.	24r
.	12G/
=11	=11
2r	(16G/LL
.	16E/JJ)
.	8r
.	4r
==:|!	==:|!
*-	*-
